X: 21176
T: Kathren Oggie
R: reel
M: 4/4
K: Adorian
V:1
|:AG|E2A2 A3B|c2A2 A3c|d3e dBAG|G3A B2AG|
E2A2 A3B|c2A2 A2g2|e2de gedB|A6:|2 A6-A||
|:B|cdef gfed|cdef g3d|B2g2 dBAG|G3A B2AB|
c2A2 A3B|c2A2 g3a|bage dedB|A6:|
V:2
|:E2|A4E2D2|C2C2E4|A4D2E2|D4G2E2|
A4E2D2|C2C2E4|A2G2B2D2|1 E6:|2 E6-E||
|:E|G2E2 G3A|G2E2 G3F|G2D2G2A2|B2d2G4|
A4E2D2|C3CD2E2|G2Bc B2G2|E6:|

